X: 324
T: THE POOR OLD WOMAN
T: An sean bhean bhochd
B: O'Neill's 324
M: C
L: 1/8
Z: 1999 by John Chambers <jc@trillian.mit.edu>
N: "Animated"
N: "Collected by J.O'Neill"
N: "1st Setting"
K:F
F>G \
| A>GFD F2DC | G2G2 G2(F>G) | A>GFD F2DC | F2 F2 F2 ||
|| GA \
| B>ABc d2cA | cAG^F G2=FG | A>GFD F2DC | F2 F2 F2 ||


